T: Nine Points Of Roguery, The
M: 4/4
L: 1/8
K: Dmaj
A, | "D" D2 FD GFED | AdAF AdAF | {DE}D2  FA "G" GFEd |"C" =cE  (3EEE CE"D" DEFD GFED | AdAF AdAF | {DE}D2 FA "G" GFEc | dD  (3DDD dDD :| !|: B | "C" {d}C2 cA "G/B" {d} B2 BG | "Am" {Ad} A2 Ad "G/B" AGFE | "D" ("C" =cecA "G/B" BdBG | "Am" Adcd  "G/B" fdAF | "D" (3DED FA "G" GFEc  |"|: c| "D" d2 fa "C" gfec | "D" defg abaf |  d2 fa "C" gfga | "Am" be (3d"D" d2 fa "C" gfec | "D" defg abaf | d2 fa "C" gfga | "Am" fage "D" fdAB | "C" =cedA "G/B" BdBG | " Am" Adcd "G/B" fdAF | "D" {DE}D2 FA GFEd |"C" =cecA "G/B" BdBG | "Am" Adcd "D" fdAF | (3DED FA "G" GFEc | "D" dD (
